X:37
%%score 1 2
%%pagewidth 950pt
T:By a bank as I lay
M:C
L:1/8
K:C
V:1 clef-treble
V:2 clef-bass octave=-1
V:1
[DGB]2[CG]2 (A2B2) & x4 (C2F2)|(c>B)(c>d) c4 & E8|B>cdd d2dc & D4 G2E2|B>AG>A ^F4 & D2D2 D4|
w:By a bank* as* I* lay, Musing* on a thing that was past and gone, heigh ho!
V:2
G2E2 F2D2|C8|G4 B,2C2|G,2B,2 D4|
V:1
A>_Bcc [Bd][Ac] [Ac]2 & [C=F]2[FA]2 F4|=B>cdd [ce][Bd][Bd]d & [DG]2[GB]2 G4|c2>B2 (A2B2) & G4 (C2F2)|(c>B)(c>d) c4 & E8||
w:In the merry* month of May, O some-what be-fore the day, Me-thought I heard* at* the* last.
V:2
=F4 =F,4|G4 G,4|E4 F2D2|C8||

